src/assets/img/share-logos/email.svg

<?xml version="1.0" encoding="UTF-8" standalone="no"?>
<svg
   xmlns:dc="http://purl.org/dc/elements/1.1/"
   xmlns:cc="http://creativecommons.org/ns#"
   xmlns:rdf="http://www.w3.org/1999/02/22-rdf-syntax-ns#"
   xmlns:svg="http://www.w3.org/2000/svg"
   xmlns="http://www.w3.org/2000/svg"
   xmlns:sodipodi="http://sodipodi.sourceforge.net/DTD/sodipodi-0.dtd"
   xmlns:inkscape="http://www.inkscape.org/namespaces/inkscape"
   viewBox="0 0 50 50"
   width="50px"
   height="50px"
   version="1.1"
   id="svg4665"
   sodipodi:docname="email.svg"
   fill="#000000"
   inkscape:version="0.92.5 (2060ec1f9f, 2020-04-08)">
  <metadata
     id="metadata4671">
    <rdf:RDF>
      <cc:Work
         rdf:about="">
        <dc:format>image/svg+xml</dc:format>
        <dc:type
           rdf:resource="http://purl.org/dc/dcmitype/StillImage" />
        <dc:title></dc:title>
      </cc:Work>
    </rdf:RDF>
  </metadata>
  <defs
     id="defs4669" />
  <sodipodi:namedview
     pagecolor="#ffffff"
     bordercolor="#666666"
     borderopacity="1"
     objecttolerance="10"
     gridtolerance="10"
     guidetolerance="10"
     inkscape:pageopacity="0"
     inkscape:pageshadow="2"
     inkscape:window-width="1842"
     inkscape:window-height="1016"
     id="namedview4667"
     showgrid="false"
     inkscape:zoom="8.51"
     inkscape:cx="26.406332"
     inkscape:cy="36.390628"
     inkscape:window-x="78"
     inkscape:window-y="27"
     inkscape:window-maximized="1"
     inkscape:current-layer="svg4665" />
  <path
     d="M 24.864402,3.6906164e-4 A 25.000433,25.000312 0 0 0 1.7374228e-4,25.093445 25.000433,25.000312 0 0 0 25.048848,49.999953 25.000433,25.000312 0 0 0 49.999999,24.993801 V 24.819955 A 25.000433,25.000312 0 0 0 24.864402,3.6906164e-4 Z M 11.974352,15.230907 h 26.051469 c 0.195386,0 0.379664,0.02205 0.55334,0.07632 L 27.908829,25.966908 c -1.606509,1.6065 -4.221577,1.6065 -5.828084,0 L 11.421012,15.307229 c 0.173676,-0.05427 0.357954,-0.07632 0.55334,-0.07632 z m -2.094634,1.617609 8.162286,8.151645 -8.162286,8.151646 C 9.825448,32.978131 9.803398,32.793855 9.803398,32.59847 V 17.401853 c 0,-0.195385 0.02205,-0.379662 0.07632,-0.553337 z m 30.240737,0 c 0.05427,0.173675 0.07632,0.357952 0.07632,0.553337 V 32.59847 c 0,0.195385 -0.02205,0.379661 -0.07632,0.553337 L 31.94757,25.000161 Z m -20.547758,9.682331 0.966754,0.97735 c 1.22659,1.226584 2.843528,1.833855 4.450035,1.833855 1.617362,0 3.223446,-0.607271 4.450036,-1.833855 l 0.977353,-0.97735 8.162286,8.162246 c -0.173676,0.05427 -0.357954,0.07632 -0.55334,0.07632 H 11.974352 c -0.195386,0 -0.379664,-0.02205 -0.55334,-0.07632 z"
     id="path4663"
     style="fill:#838383;fill-opacity:1;stroke-width:1.08547533"
     inkscape:connector-curvature="0" />
</svg>

<svg xmlns="http://www.w3.org/2000/svg" viewBox="0 0 50 50" width="50" height="50"><path d="M24.864 0A25 25 0 0 0 0 25.093 25 25 0 0 0 25.05 50 25 25 0 0 0 50 24.994v-.174A25 25 0 0 0 24.864 0Zm-12.89 15.23h26.052c.195 0 .38.023.553.077l-10.67 10.66a4.126 4.126 0 0 1-5.828 0l-10.66-10.66c.174-.054.358-.076.553-.076zM9.88 16.85 18.042 25 9.88 33.152a1.843 1.843 0 0 1-.077-.554V17.402c0-.196.022-.38.077-.553zm30.24 0c.055.173.077.357.077.553v15.196c0 .196-.022.38-.077.554L31.948 25Zm-20.547 9.68.966.977a6.276 6.276 0 0 0 4.45 1.834 6.258 6.258 0 0 0 4.45-1.834l.978-.977 8.162 8.162a1.843 1.843 0 0 1-.553.076H11.974c-.195 0-.38-.022-.553-.076z" style="fill:#838383;fill-opacity:1;stroke-width:1.08547533"/></svg>
